X: 7422
T:Mazurka de Lapleau
R:Mazurka
M:3/4
O:France
K:G
DG|B2BdBG|B2BdBG|A2AcBA|1B2G2:|2G4|:\
dB|G2GBdB|c2A2cA|F2FAcA|B2G2dB|\
G2GBdB|c2A2cA|F2FAcA|G4:|
